X:196
T:You Don't Have to Move That Mountain
C:Keith Whitley (Thile intro)
N:TablEdited by Steve Terregino
L:1/8
Q:1/4=140
M:4/4
K:C
z8 | "G"zG, _B,C {^D}EF ^FG | [_B^F]G GG, [BG]G =FG, | ^DE C3F/^F/ =FD | ^DF FD F/G/c cG | 
^de c2 cd/e/ f^f | ^fg g_b bc' c'b | f/g/c' _b^d'/e'/ c'b f/g/b | c'g _b{g}f ^df d/e/c | 
_B3^F/G/ zc G,[dB] | G,[cG] G,G, {^D}EG, _B,=B, | B,C 

